src/scalable/devices/input-gaming.svg

<?xml version="1.0" encoding="UTF-8" standalone="no"?>
<svg
   xmlns:dc="http://purl.org/dc/elements/1.1/"
   xmlns:cc="http://creativecommons.org/ns#"
   xmlns:rdf="http://www.w3.org/1999/02/22-rdf-syntax-ns#"
   xmlns:svg="http://www.w3.org/2000/svg"
   xmlns="http://www.w3.org/2000/svg"
   xmlns:sodipodi="http://sodipodi.sourceforge.net/DTD/sodipodi-0.dtd"
   xmlns:inkscape="http://www.inkscape.org/namespaces/inkscape"
   width="64"
   height="64"
   version="1"
   id="svg20"
   sodipodi:docname="input-gaming.svg"
   inkscape:version="0.92.2 2405546, 2018-03-11">
  <metadata
     id="metadata26">
    <rdf:RDF>
      <cc:Work
         rdf:about="">
        <dc:format>image/svg+xml</dc:format>
        <dc:type
           rdf:resource="http://purl.org/dc/dcmitype/StillImage" />
      </cc:Work>
    </rdf:RDF>
  </metadata>
  <defs
     id="defs24" />
  <sodipodi:namedview
     pagecolor="#ffffff"
     bordercolor="#666666"
     borderopacity="1"
     objecttolerance="10"
     gridtolerance="10"
     guidetolerance="10"
     inkscape:pageopacity="0"
     inkscape:pageshadow="2"
     inkscape:window-width="1920"
     inkscape:window-height="1022"
     id="namedview22"
     showgrid="false"
     inkscape:zoom="3.6875"
     inkscape:cx="-4.0677966"
     inkscape:cy="32"
     inkscape:window-x="0"
     inkscape:window-y="28"
     inkscape:window-maximized="1"
     inkscape:current-layer="svg20" />
  <circle
     style="opacity:1;fill:#4d4d4d;fill-opacity:1;stroke:none;stroke-width:1.85714269;stroke-miterlimit:4;stroke-dasharray:none;stroke-opacity:0.03921569;paint-order:stroke markers fill"
     id="path13"
     cx="31.999998"
     cy="31.999956"
     r="26" />
  <path
     inkscape:connector-curvature="0"
     style="fill:#ffffff;stroke-width:0.13671398;stroke-linecap:square"
     id="path4220"
     d="m 15.384599,29.500007 -1.303484,10.158425 c -0.05322,0.209764 -0.08049,0.424328 -0.08112,0.640668 0,1.491061 1.239828,2.699754 2.769233,2.699754 0.822862,-7.18e-4 1.602765,-0.358299 2.128303,-0.975534 l 0.0027,0.0036 7.561304,-8.478955 z m 33.230781,0 -11.076923,4.04965 7.561297,8.478992 0.0028,-0.0036 c 0.525476,0.617348 1.305381,0.974816 2.128241,0.975534 1.529409,0 2.769237,-1.208693 2.769237,-2.699755 -6.69e-4,-0.215811 -0.02759,-0.431093 -0.08115,-0.640705 z" />
  <path
     inkscape:connector-curvature="0"
     style="fill:#ffffff;stroke-width:0.14166664;stroke-linecap:square"
     id="rect4234"
     d="M 23.499999,18.999988 C 18.805579,18.999988 15,22.805594 15,27.499994 15,32.194394 18.805579,36 23.499999,36 c 1.668474,-0.0017 3.299553,-0.494173 4.689944,-1.41668 h 7.620118 C 37.200451,35.5056 38.831532,35.9983 40.499997,36 45.19442,36 49,32.194394 49,27.499994 c 0,-4.6944 -3.80558,-8.500006 -8.500003,-8.500006 h -7.083328 -2.833335 z" />
  <circle
     r="0"
     cx="23.456718"
     cy="30.737768"
     style="fill:#e3dbdb;stroke-width:0.12307695;stroke-linecap:square"
     id="ellipse4246" />
  <path
     inkscape:connector-curvature="0"
     style="fill:#27ae60;fill-opacity:1;stroke-width:0.14999823;stroke-linecap:square"
     id="path4717"
     d="m 41.000006,21.999988 a 1.4999821,1.4999821 0 0 0 -1.499985,1.499981 1.4999821,1.4999821 0 0 0 1.499985,1.500019 1.4999821,1.4999821 0 0 0 1.499973,-1.500019 1.4999821,1.4999821 0 0 0 -1.499973,-1.499981 z" />
  <path
     inkscape:connector-curvature="0"
     style="fill:#f36137;fill-opacity:1;stroke-width:0.15000281;stroke-linecap:square"
     id="path4715"
     d="m 37.999998,24.999988 a 1.5000282,1.5000282 0 0 0 -1.500019,1.499981 1.5000282,1.5000282 0 0 0 1.500019,1.500019 1.5000282,1.5000282 0 0 0 1.500031,-1.500019 1.5000282,1.5000282 0 0 0 -1.500031,-1.499981 z" />
  <path
     inkscape:connector-curvature="0"
     style="fill:#f05242;fill-opacity:1;stroke-width:0.15000281;stroke-linecap:square"
     id="path4713"
     d="m 44.000002,24.999988 a 1.5000282,1.5000282 0 0 0 -1.500034,1.499981 1.5000282,1.5000282 0 0 0 1.500034,1.500019 1.5000282,1.5000282 0 0 0 1.500027,-1.500019 1.5000282,1.5000282 0 0 0 -1.500027,-1.499981 z" />
  <path
     inkscape:connector-curvature="0"
     style="fill:#2980b9;fill-opacity:1;stroke-width:0.15000027;stroke-linecap:square"
     id="path4268"
     d="m 41.000006,27.999988 a 1.5000029,1.5000029 0 0 0 -1.500008,1.500056 1.5000029,1.5000029 0 0 0 1.500008,1.499982 1.5000029,1.5000029 0 0 0 1.499992,-1.499982 1.5000029,1.5000029 0 0 0 -1.499992,-1.500056 z" />
  <circle
     style="opacity:1;fill:#f88e45;fill-opacity:1;stroke:none;stroke-width:2.13562131;stroke-miterlimit:4;stroke-dasharray:none;stroke-opacity:0.03921569;paint-order:stroke markers fill"
     id="path939"
     cx="22.999998"
     cy="25.999979"
     r="3" />
  <path
     d="M 26.999994,32.000013 A 2.0000325,2.0000325 0 0 0 24.999971,33.999988 2.0000325,2.0000325 0 0 0 26.999994,36 2.0000325,2.0000325 0 0 0 29.00003,33.999988 2.0000325,2.0000325 0 0 0 26.999994,32.000013 Z"
     id="path960"
     style="fill:#666666;fill-opacity:1;stroke:#e1e1e1;stroke-width:1.99999988;stroke-linecap:square;stroke-miterlimit:4;stroke-dasharray:none;stroke-opacity:1;paint-order:markers stroke fill"
     inkscape:connector-curvature="0" />
  <path
     inkscape:connector-curvature="0"
     style="fill:#666666;fill-opacity:1;stroke:#e1e1e1;stroke-width:1.99999988;stroke-linecap:square;stroke-miterlimit:4;stroke-dasharray:none;stroke-opacity:1;paint-order:markers stroke fill"
     id="path962"
     d="M 37.000023,32.000013 A 2.0000325,2.0000325 0 0 0 35,33.999988 2.0000325,2.0000325 0 0 0 37.000023,36 2.0000325,2.0000325 0 0 0 39.000057,33.999988 2.0000325,2.0000325 0 0 0 37.000023,32.000013 Z" />
</svg>

<svg xmlns="http://www.w3.org/2000/svg" width="64" height="64" version="1"><circle cx="32" cy="32" r="26" fill="#4d4d4d" paint-order="stroke markers fill"/><path d="M15.385 29.5L14.08 39.658c-.053.21-.08.425-.081.641 0 1.491 1.24 2.7 2.77 2.7.822 0 1.602-.358 2.128-.976l.002.004 7.562-8.479zm33.23 0l-11.077 4.05 7.562 8.479.003-.004a2.798 2.798 0 0 0 2.128.976C48.76 43 50 41.79 50 40.3a2.62 2.62 0 0 0-.081-.64z" fill="#fff"/><path d="M23.5 19a8.5 8.5 0 0 0 0 17 8.498 8.498 0 0 0 4.69-1.417h7.62A8.5 8.5 0 0 0 40.5 36a8.5 8.5 0 0 0 0-17h-9.917z" fill="#fff"/><path d="M41 22a1.5 1.5 0 0 0-1.5 1.5A1.5 1.5 0 0 0 41 25a1.5 1.5 0 0 0 1.5-1.5A1.5 1.5 0 0 0 41 22z" fill="#27ae60"/><path d="M38 25a1.5 1.5 0 0 0-1.5 1.5A1.5 1.5 0 0 0 38 28a1.5 1.5 0 0 0 1.5-1.5A1.5 1.5 0 0 0 38 25z" fill="#f36137"/><path d="M44 25a1.5 1.5 0 0 0-1.5 1.5A1.5 1.5 0 0 0 44 28a1.5 1.5 0 0 0 1.5-1.5A1.5 1.5 0 0 0 44 25z" fill="#f05242"/><path d="M41 28a1.5 1.5 0 0 0-1.5 1.5A1.5 1.5 0 0 0 41 31a1.5 1.5 0 0 0 1.5-1.5A1.5 1.5 0 0 0 41 28z" fill="#2980b9"/><circle cx="23" cy="26" r="3" fill="#f88e45" paint-order="stroke markers fill"/><path d="M27 32a2 2 0 0 0-2 2 2 2 0 0 0 2 2 2 2 0 0 0 2-2 2 2 0 0 0-2-2zM37 32a2 2 0 0 0-2 2 2 2 0 0 0 2 2 2 2 0 0 0 2-2 2 2 0 0 0-2-2z" fill="#666" stroke="#e1e1e1" stroke-width="2" stroke-linecap="square" paint-order="markers stroke fill"/></svg>
